dist/assets/images/weather/weather_18.svg

<svg width="86" height="86" viewBox="0 0 86 86" fill="none" xmlns="http://www.w3.org/2000/svg">
<g clip-path="url(#clip0)">
<path d="M53.4813 46.4803C62.8247 46.4803 70.3991 38.9059 70.3991 29.5625C70.3991 20.219 62.8247 12.6447 53.4813 12.6447C44.1378 12.6447 36.5635 20.219 36.5635 29.5625C36.5635 38.9059 44.1378 46.4803 53.4813 46.4803Z" fill="#EFCC00"/>
<path d="M53.4812 2.6875V8.65375" stroke="#EFCC00" stroke-width="3" stroke-miterlimit="10" stroke-linecap="round"/>
<path d="M53.4812 50.4713V56.4376" stroke="#EFCC00" stroke-width="3" stroke-miterlimit="10" stroke-linecap="round"/>
<path d="M26.6062 29.5625H32.5859" stroke="#EFCC00" stroke-width="3" stroke-miterlimit="10" stroke-linecap="round"/>
<path d="M74.39 29.5625H80.3563" stroke="#EFCC00" stroke-width="3" stroke-miterlimit="10" stroke-linecap="round"/>
<path d="M34.4806 10.5619L38.7 14.7813" stroke="#EFCC00" stroke-width="3" stroke-miterlimit="10" stroke-linecap="round"/>
<path d="M68.2625 44.3438L72.4818 48.5631" stroke="#EFCC00" stroke-width="3" stroke-miterlimit="10" stroke-linecap="round"/>
<path d="M34.4806 48.5631L38.7 44.3438" stroke="#EFCC00" stroke-width="3" stroke-miterlimit="10" stroke-linecap="round"/>
<path d="M68.2625 14.7813L72.4818 10.5619" stroke="#EFCC00" stroke-width="3" stroke-miterlimit="10" stroke-linecap="round"/>
<path d="M31.5781 21.3656C35.8615 21.357 40.0658 22.519 43.7367 24.7263C47.4075 26.9336 50.4054 30.1021 52.4062 33.8894C54.8575 32.4562 57.6061 31.6073 60.4386 31.4085C63.2712 31.2097 66.1114 31.6665 68.7388 32.7433C71.3662 33.8201 73.71 35.488 75.5884 37.6174C77.4667 39.7469 78.829 42.2806 79.5694 45.0218C80.3098 47.7631 80.4085 50.6381 79.8577 53.4237C79.3069 56.2092 78.1215 58.8304 76.3935 61.0836C74.6656 63.3368 72.4415 65.1614 69.8941 66.4157C67.3467 67.6701 64.5445 68.3204 61.705 68.3163L31.5781 68.3969C25.3414 68.3969 19.3601 65.9194 14.9501 61.5093C10.54 57.0993 8.0625 51.118 8.0625 44.8813C8.0625 38.6445 10.54 32.6633 14.9501 28.2532C19.3601 23.8432 25.3414 21.3656 31.5781 21.3656Z" fill="url(#paint0_linear)"/>
<path d="M79.4603 54.8023C82.2061 44.9743 76.465 34.7812 66.637 32.0354C56.8091 29.2895 46.616 35.0307 43.8701 44.8586C41.1243 54.6866 46.8654 64.8796 56.6934 67.6255C66.5213 70.3714 76.7144 64.6302 79.4603 54.8023Z" fill="url(#paint1_linear)"/>
<path d="M35.6094 71.8906V75.9219" stroke="#0BAEFF" stroke-width="3" stroke-miterlimit="10" stroke-linecap="round"/>
<path d="M43.6719 74.5781V78.6094" stroke="#0BAEFF" stroke-width="3" stroke-miterlimit="10" stroke-linecap="round"/>
<path d="M51.7344 71.8906V75.9219" stroke="#0BAEFF" stroke-width="3" stroke-miterlimit="10" stroke-linecap="round"/>
</g>
<defs>
<linearGradient id="paint0_linear" x1="25.6387" y1="70.3991" x2="53.9784" y2="33.7013" gradientUnits="userSpaceOnUse">
<stop stop-color="#F2F2F2"/>
<stop offset="1" stop-color="#CFCFCF"/>
</linearGradient>
<linearGradient id="paint1_linear" x1="69.2204" y1="43.2631" x2="47.8036" y2="61.8909" gradientUnits="userSpaceOnUse">
<stop offset="0.02" stop-color="white"/>
<stop offset="1" stop-color="white" stop-opacity="0"/>
</linearGradient>
<clipPath id="clip0">
<rect width="86" height="86" fill="white"/>
</clipPath>
</defs>
</svg>

<svg width="86" height="86" fill="none" xmlns="http://www.w3.org/2000/svg"><g clip-path="url(#clip0)"><path d="M53.481 46.48c9.344 0 16.918-7.574 16.918-16.917 0-9.344-7.574-16.918-16.918-16.918-9.343 0-16.918 7.574-16.918 16.918 0 9.343 7.575 16.917 16.918 16.917z" fill="#EFCC00"/><path d="M53.481 2.688v5.966m0 41.817v5.967M26.606 29.563h5.98m41.804 0h5.966M34.48 10.562l4.22 4.22m29.563 29.562l4.219 4.22m-38.002-.001l4.22-4.22m29.563-29.562l4.219-4.22" stroke="#EFCC00" stroke-width="3" stroke-miterlimit="10" stroke-linecap="round"/><path d="M31.578 21.366a23.503 23.503 0 0120.828 12.523 18.477 18.477 0 119.299 34.427l-30.127.08a23.515 23.515 0 110-47.03z" fill="url(#paint0_linear)"/><path d="M79.46 54.802c2.746-9.828-2.995-20.02-12.823-22.767-9.828-2.745-20.021 2.996-22.767 12.824-2.746 9.828 2.995 20.02 12.823 22.767 9.828 2.745 20.021-2.996 22.767-12.824z" fill="url(#paint1_linear)"/><path d="M35.61 71.89v4.032m8.062-1.344v4.031m8.062-6.719v4.032" stroke="#0BAEFF" stroke-width="3" stroke-miterlimit="10" stroke-linecap="round"/></g><defs><linearGradient id="paint0_linear" x1="25.639" y1="70.399" x2="53.978" y2="33.701" gradientUnits="userSpaceOnUse"><stop stop-color="#F2F2F2"/><stop offset="1" stop-color="#CFCFCF"/></linearGradient><linearGradient id="paint1_linear" x1="69.22" y1="43.263" x2="47.804" y2="61.891" gradientUnits="userSpaceOnUse"><stop offset=".02" stop-color="#fff"/><stop offset="1" stop-color="#fff" stop-opacity="0"/></linearGradient><clipPath id="clip0"><path fill="#fff" d="M0 0h86v86H0z"/></clipPath></defs></svg>
